X:1
T:Title
%%score { ( 1 3 ) | ( 2 4 ) }
L:1/8
Q:1/4=100
M:4/4
K:G
V:1 treble nm="Grand Piano"
V:3 treble 
V:2 treble 
V:4 treble 
V:1
 B2 BA G G2 [DG] | E2 GE [B,D]4 | [B,D]2 [B,G][CA] [DB] [Dd]3 | [DA]6 z2 | %4
w: Haldor~Lillenas * * * * *||||
 [DB]2 [DB][DA] [DG] [DG]2 D | E2 [EG][EG] [Ec]4 | B2 dc B A3 | G6 z2 | d2 ^cd e d3 | B6 z2 | %10
w: ||||||
 B2 _B=B c B3 |[M:3/4] A4 z2 |[M:1/4] [DFA]2 |[M:4/4] [DGB]2 [DGB]2 [DFc]2 [DAc]2 | %14
w: ||||
 [DBd]2 [Gd][Gd] e2 c2 | [DGB]2 [Gd][Fc] [GB] [FA]3 | G6 z2 |] %17
w: |||
V:2
 [G,DG]2 [G,DG][G,CD] [G,B,D] [G,B,D]2[K:bass] [B,,G,] | [C,G,C]2 [C,E,C][C,G,C] [G,,G,]4 | %2
 [G,,G,]2 [G,,G,][G,,G,] [G,,G,] [B,,G,]3 | [D,F,]6 z2 | %4
 [G,,G,]2 [G,,G,][A,,F,] [B,,G,] [B,,G,]2 [B,,G,] | [C,G,C]2 [C,G,][C,G,] [C,G,]4 | %6
 [D,G,D]2 [D,B,D][D,A,C] [D,G,D] [D,CD]3 | [G,B,D]6 z2 | %8
 [G,B,G]2 [G,_B,G][G,=B,G] [G,CG] [G,B,G]3 | [G,DG]2 [G,D]2 [G,D]2 z2 | %10
 [G,DG]2 [G,^CG][G,DG] [G,EG] [G,DG]3 |[M:3/4][K:bass] D,2 E,2 F,2 |[M:1/4] D,2 | %13
[M:4/4] G,2 G,2 A,2 D,2 | z4 C4 | D,2 [D,B,][D,A,] [D,D] [D,C]3 | B,2 z2 z4 |] %17
V:3
 x8 | x8 | x8 | x8 | x8 | x8 | x8 | x8 | x8 | z2 G2 G2 G,2 | x8 |[M:3/4] [DF]2 [^CG]2 [DA]2 | %12
[M:1/4] x2 |[M:4/4] x8 | z4 G4 | x8 | z2 E2 D2 z2 |] %17
V:4
 x7[K:bass] x | x8 | x8 | x8 | x8 | x8 | x8 | x8 | x8 | x8 | x8 |[M:3/4][K:bass] x6 |[M:1/4] x2 | %13
[M:4/4] x8 | G,2 [=F,B,][F,B,] E,2 E,2 | x8 | G,2- [G,-_B,]2 [G,=B,]2 z2 |] %17

